src/16/mimetypes/text-x-patch.svg

<svg width="16" xmlns="http://www.w3.org/2000/svg" height="16" viewBox="0 0 16 16">
 <path fill="#6c7a89" d="M5.5 2A1.5 1.5 0 0 0 4 3.5 1.5 1.5 0 0 0 5 4.912109V11.09A1.499991 1.499991 0 0 0 4 12.5 1.499991 1.499991 0 0 0 5.5 14 1.499991 1.499991 0 0 0 7 12.5 1.499991 1.499991 0 0 0 6 11.08789V4.912A1.5 1.5 0 0 0 7 3.5 1.5 1.5 0 0 0 5.5 2M9 2L7 3.4 9 5V4H10C10.554 4 11 4.446 11 5V11.09A1.499991 1.499991 0 0 0 10 12.5 1.499991 1.499991 0 0 0 11.5 14 1.499991 1.499991 0 0 0 13 12.5 1.499991 1.499991 0 0 0 12 11.08789V5C12 3.892 11.11 3.055 10 3H9zM5.5 3A.5 .5 0 0 1 6 3.5 .5 .5 0 0 1 5.5 4 .5 .5 0 0 1 5 3.5 .5 .5 0 0 1 5.5 3M5.5 12A.499991 .499991 0 0 1 6 12.5 .499991 .499991 0 0 1 5.5 13 .499991 .499991 0 0 1 5 12.5 .499991 .499991 0 0 1 5.5 12M11.5 12A.499991 .499991 0 0 1 12 12.5 .499991 .499991 0 0 1 11.5 13 .499991 .499991 0 0 1 11 12.5 .499991 .499991 0 0 1 11.5 12"/>
</svg>

<svg width="16" xmlns="http://www.w3.org/2000/svg" height="16"><path fill="#6c7a89" d="M5.5 2A1.5 1.5 0 0 0 4 3.5a1.5 1.5 0 0 0 1 1.412v6.178a1.5 1.5 0 0 0-1 1.41A1.5 1.5 0 0 0 5.5 14 1.5 1.5 0 0 0 7 12.5a1.5 1.5 0 0 0-1-1.412V4.912A1.5 1.5 0 0 0 7 3.5 1.5 1.5 0 0 0 5.5 2M9 2L7 3.4 9 5V4h1c.554 0 1 .446 1 1v6.09a1.5 1.5 0 0 0-1 1.41 1.5 1.5 0 0 0 1.5 1.5 1.5 1.5 0 0 0 1.5-1.5 1.5 1.5 0 0 0-1-1.412V5c0-1.108-.89-1.945-2-2H9zM5.5 3a.5.5 0 0 1 .5.5.5.5 0 0 1-.5.5.5.5 0 0 1-.5-.5.5.5 0 0 1 .5-.5m0 9a.5.5 0 0 1 .5.5.5.5 0 0 1-.5.5.5.5 0 0 1-.5-.5.5.5 0 0 1 .5-.5m6 0a.5.5 0 0 1 .5.5.5.5 0 0 1-.5.5.5.5 0 0 1-.5-.5.5.5 0 0 1 .5-.5"/></svg>
